assets/logos/linkedin.svg

<?xml version="1.0"?>
<svg xmlns="http://www.w3.org/2000/svg" height="512px" viewBox="-21 -35 682.66669 682" width="512px"><path d="m77.613281-.667969c-46.929687 0-77.613281 30.816407-77.613281 71.320313 0 39.609375 29.769531 71.304687 75.8125 71.304687h.890625c47.847656 0 77.625-31.695312 77.625-71.304687-.894531-40.503906-29.777344-71.320313-76.714844-71.320313zm0 0" fill="#FFFFFF"/><path d="m8.109375 198.3125h137.195313v412.757812h-137.195313zm0 0" fill="#FFFFFF"/><path d="m482.054688 188.625c-74.011719 0-123.640626 69.546875-123.640626 69.546875v-59.859375h-137.199218v412.757812h137.191406v-230.5c0-12.339843.894531-24.660156 4.519531-33.484374 9.917969-24.640626 32.488281-50.167969 70.390625-50.167969 49.644532 0 69.5 37.851562 69.5 93.339843v220.8125h137.183594v-236.667968c0-126.78125-67.6875-185.777344-157.945312-185.777344zm0 0" fill="#FFFFFF"/></svg>

<svg xmlns="http://www.w3.org/2000/svg" width="512" height="512" viewBox="-21 -35 682.667 682">
	<path fill="#FFF" d="M77.613-.668C30.683-.668 0 30.148 0 70.652c0 39.61 29.77 71.305 75.813 71.305h.89c47.848 0 77.625-31.695 77.625-71.305-.894-40.504-29.777-71.32-76.715-71.32zm0 0M8.11 198.313h137.195V611.07H8.109zm0 0M482.055 188.625c-74.012 0-123.64 69.547-123.64 69.547v-59.86h-137.2V611.07h137.191v-230.5c0-12.34.895-24.66 4.52-33.484 9.918-24.64 32.488-50.168 70.39-50.168 49.645 0 69.5 37.852 69.5 93.34V611.07H640V374.402c0-126.78-67.688-185.777-157.945-185.777zm0 0"/>
</svg>
